public/zyma.svg

<?xml version="1.0" encoding="UTF-8"?>
<svg fill="none" viewBox="0 0 1240 339" xmlns="http://www.w3.org/2000/svg">
<path d="m607.33 270.74h-177.21v-40.246l117.57-147.52h-114.64v-40.402h173.96v38.234l-119.12 149.69h119.43v40.246z" fill="#000"/>
<path d="m704.51 226.46 34.762-124.46h46.813l-57.782 165.94c-11.124 31.991-19.93 51.805-26.419 59.441-6.489 7.74-19.467 11.61-38.933 11.61-3.914 0-7.056-0.052-9.425-0.155-2.369 0-5.922-0.155-10.66-0.464v-35.293l5.562 0.309c4.326 0.207 8.446 0.052 12.36-0.464s7.21-1.703 9.888-3.561c2.575-1.754 4.943-5.417 7.106-10.99 2.266-5.573 3.193-8.978 2.781-10.216l-61.799-176.16h48.976l36.77 124.46z" fill="#000"/>
<path d="m906.75 148.45c-3.708-8.152-10.969-12.229-21.784-12.229-12.566 0-21.011 4.077-25.337 12.229-2.369 4.644-3.554 11.558-3.554 20.743v101.54h-44.649v-168.42h42.795v24.613c5.459-8.772 10.609-15.015 15.45-18.73 8.549-6.605 19.621-9.9074 33.217-9.9074 12.875 0 23.278 2.8384 31.208 8.5134 6.386 5.263 11.227 12.023 14.523 20.279 5.768-9.907 12.926-17.183 21.475-21.827 9.064-4.643 19.158-6.9654 30.277-6.9654 7.42 0 14.73 1.4448 21.94 4.3344 7.21 2.889 13.75 7.946 19.62 15.17 4.74 5.882 7.94 13.106 9.58 21.671 1.03 5.676 1.55 13.983 1.55 24.922l-0.31 106.34h-45.11v-107.43c0-6.399-1.03-11.662-3.09-15.79-3.92-7.842-11.128-11.764-21.633-11.764-12.154 0-20.549 5.057-25.184 15.17-2.368 5.366-3.553 11.816-3.553 19.349v100.46h-44.341v-100.46c0-10.01-1.03-17.285-3.09-21.826z" fill="#000"/>
<path d="m1100 120.28c11.63-14.861 31.62-22.291 59.94-22.291 18.44 0 34.81 3.664 49.13 10.991 14.32 7.326 21.48 21.155 21.48 41.485v77.397c0 5.366 0.1 11.868 0.3 19.504 0.31 5.779 1.19 9.701 2.63 11.765s3.61 3.766 6.49 5.108v6.501h-47.89c-1.34-3.405-2.27-6.604-2.79-9.597-0.51-2.993-0.92-6.398-1.23-10.216-6.08 6.604-13.08 12.228-21.01 16.872-9.48 5.47-20.19 8.204-32.14 8.204-15.24 0-27.86-4.334-37.85-13.002-9.89-8.772-14.83-21.156-14.83-37.151 0-20.743 7.98-35.758 23.95-45.046 8.75-5.056 21.62-8.668 38.62-10.835l14.99-1.858c8.13-1.032 13.95-2.322 17.45-3.87 6.29-2.683 9.43-6.862 9.43-12.538 0-6.914-2.42-11.661-7.26-14.241-4.74-2.683-11.74-4.025-21.01-4.025-10.41 0-17.77 2.58-22.1 7.74-3.09 3.818-5.15 8.978-6.18 15.479h-42.48c0.92-14.757 5.04-26.882 12.36-36.376zm32.75 118.57c4.12 3.405 9.17 5.108 15.14 5.108 9.48 0 18.18-2.787 26.11-8.359 8.03-5.573 12.2-15.738 12.51-30.495v-16.408c-2.78 1.754-5.61 3.199-8.49 4.334-2.78 1.032-6.65 2.013-11.59 2.941l-9.89 1.858c-9.27 1.651-15.91 3.663-19.93 6.037-6.8 4.025-10.2 10.268-10.2 18.73 0 7.533 2.12 12.951 6.34 16.254z" fill="#000"/>
<path d="m92.332 317.02h-92.332l180.53-292.54c9.329-15.118 25.805-24.319 43.545-24.319h92.331l-180.53 292.54c-9.329 15.118-25.804 24.319-43.544 24.319z" fill="url(#c)"/>
<path d="m316.41 256.31c0 33.529-27.128 60.709-60.592 60.709-33.465 0-60.593-27.18-60.593-60.709s27.128-60.709 60.593-60.709c33.464 0 60.592 27.18 60.592 60.709z" fill="url(#b)"/>
<path d="m119.92 60.075c0 33.179-26.845 60.076-59.96 60.076-33.115 0-59.96-26.897-59.96-60.076s26.845-60.075 59.96-60.075c33.115 0 59.96 26.897 59.96 60.075z" fill="url(#a)"/>
<defs>
<linearGradient id="c" x1="620" x2="667.46" y1="-35.952" y2="365.26" gradientUnits="userSpaceOnUse">
<stop stop-color="#3B93DD" offset="0"/>
<stop stop-color="#9F71C3" offset=".31771"/>
<stop stop-color="#EF8357" offset=".64583"/>
<stop stop-color="#D96572" offset="1"/>
</linearGradient>
<linearGradient id="b" x1="181.3" x2="273.31" y1="34.962" y2="467.35" gradientUnits="userSpaceOnUse">
<stop stop-color="#F28652" offset="0"/>
<stop stop-color="#D1657F" offset="1"/>
</linearGradient>
<linearGradient id="a" x1="30.375" x2="98.888" y1="11.888" y2="102.59" gradientUnits="userSpaceOnUse">
<stop stop-color="#3395DE" offset="0"/>
<stop stop-color="#9673CE" offset="1"/>
</linearGradient>
</defs>
</svg>

<svg width="1240" height="339" viewBox="0 0 1240 339" fill="none" xmlns="http://www.w3.org/2000/svg">
<path d="M607.334 270.735H430.125V230.489L547.698 82.9689H433.061V42.5674H607.025V80.8018L487.907 230.489H607.334V270.735Z" fill="black"/>
<path d="M704.512 226.464L739.274 102.009H786.087L728.305 267.949C717.181 299.94 708.375 319.754 701.886 327.39C695.397 335.13 682.419 339 662.953 339C659.039 339 655.897 338.948 653.528 338.845C651.159 338.845 647.606 338.69 642.868 338.381V303.088L648.43 303.397C652.756 303.604 656.876 303.449 660.79 302.933C664.704 302.417 668 301.23 670.678 299.372C673.253 297.618 675.621 293.955 677.784 288.382C680.05 282.809 680.977 279.404 680.565 278.166L618.766 102.009H667.742L704.512 226.464Z" fill="black"/>
<path d="M906.749 148.447C903.041 140.295 895.78 136.218 884.965 136.218C872.399 136.218 863.954 140.295 859.628 148.447C857.259 153.091 856.074 160.005 856.074 169.19V270.735H811.425V102.318H854.22V126.931C859.679 118.159 864.829 111.916 869.67 108.201C878.219 101.596 889.291 98.2936 902.887 98.2936C915.762 98.2936 926.165 101.132 934.095 106.807C940.481 112.07 945.322 118.83 948.618 127.086C954.386 117.179 961.544 109.903 970.093 105.259C979.157 100.616 989.251 98.2936 1000.37 98.2936C1007.79 98.2936 1015.1 99.7384 1022.31 102.628C1029.52 105.517 1036.06 110.574 1041.93 117.798C1046.67 123.68 1049.87 130.904 1051.51 139.469C1052.54 145.145 1053.06 153.452 1053.06 164.391L1052.75 270.735H1007.64V163.308C1007.64 156.909 1006.61 151.646 1004.55 147.518C1000.63 139.676 993.422 135.754 982.917 135.754C970.763 135.754 962.368 140.811 957.733 150.924C955.365 156.29 954.18 162.74 954.18 170.273V270.735H909.839V170.273C909.839 160.263 908.809 152.988 906.749 148.447Z" fill="black"/>
<path d="M1100.03 120.275C1111.66 105.414 1131.65 97.984 1159.97 97.984C1178.41 97.984 1194.78 101.648 1209.1 108.975C1223.42 116.301 1230.58 130.13 1230.58 150.46V227.857C1230.58 233.223 1230.68 239.725 1230.88 247.361C1231.19 253.14 1232.07 257.062 1233.51 259.126C1234.95 261.19 1237.12 262.892 1240 264.234V270.735H1192.11C1190.77 267.33 1189.84 264.131 1189.32 261.138C1188.81 258.145 1188.4 254.74 1188.09 250.922C1182.01 257.526 1175.01 263.15 1167.08 267.794C1157.6 273.264 1146.89 275.998 1134.94 275.998C1119.7 275.998 1107.08 271.664 1097.09 262.996C1087.2 254.224 1082.26 241.84 1082.26 225.845C1082.26 205.102 1090.24 190.087 1106.21 180.799C1114.96 175.743 1127.83 172.131 1144.83 169.964L1159.82 168.106C1167.95 167.074 1173.77 165.784 1177.27 164.236C1183.56 161.553 1186.7 157.374 1186.7 151.698C1186.7 144.784 1184.28 140.037 1179.44 137.457C1174.7 134.774 1167.7 133.432 1158.43 133.432C1148.02 133.432 1140.66 136.012 1136.33 141.172C1133.24 144.99 1131.18 150.15 1130.15 156.651H1087.67C1088.59 141.894 1092.71 129.769 1100.03 120.275ZM1132.78 238.848C1136.9 242.253 1141.95 243.956 1147.92 243.956C1157.4 243.956 1166.1 241.169 1174.03 235.597C1182.06 230.024 1186.23 219.859 1186.54 205.102V188.694C1183.76 190.448 1180.93 191.893 1178.05 193.028C1175.27 194.06 1171.4 195.041 1166.46 195.969L1156.57 197.827C1147.3 199.478 1140.66 201.49 1136.64 203.864C1129.84 207.889 1126.44 214.132 1126.44 222.594C1126.44 230.127 1128.56 235.545 1132.78 238.848Z" fill="black"/>
<path d="M92.3317 317.02H0L180.534 24.4774C189.863 9.35978 206.339 0.15851 224.079 0.15851H316.41L135.876 292.701C126.547 307.819 110.072 317.02 92.3317 317.02Z" fill="url(#paint0_linear_181_26)"/>
<path d="M316.41 256.311C316.41 289.84 289.282 317.02 255.818 317.02C222.353 317.02 195.225 289.84 195.225 256.311C195.225 222.782 222.353 195.602 255.818 195.602C289.282 195.602 316.41 222.782 316.41 256.311Z" fill="url(#paint1_linear_181_26)"/>
<path d="M119.92 60.0754C119.92 93.2541 93.0746 120.151 59.9598 120.151C26.8449 120.151 0 93.2541 0 60.0754C0 26.8967 26.8449 0 59.9598 0C93.0746 0 119.92 26.8967 119.92 60.0754Z" fill="url(#paint2_linear_181_26)"/>
<defs>
<linearGradient id="paint0_linear_181_26" x1="620" y1="-35.952" x2="667.459" y2="365.263" gradientUnits="userSpaceOnUse">
<stop stop-color="#3B93DD"/>
<stop offset="0.317708" stop-color="#9F71C3"/>
<stop offset="0.645833" stop-color="#EF8357"/>
<stop offset="1" stop-color="#D96572"/>
</linearGradient>
<linearGradient id="paint1_linear_181_26" x1="181.305" y1="34.9621" x2="273.309" y2="467.353" gradientUnits="userSpaceOnUse">
<stop stop-color="#F28652"/>
<stop offset="1" stop-color="#D1657F"/>
</linearGradient>
<linearGradient id="paint2_linear_181_26" x1="30.3754" y1="11.8883" x2="98.888" y2="102.588" gradientUnits="userSpaceOnUse">
<stop stop-color="#3395DE"/>
<stop offset="1" stop-color="#9673CE"/>
</linearGradient>
</defs>
</svg>
